src/topics/icons/rubocop.svg

<svg height="302" preserveAspectRatio="xMidYMid" viewBox="0 0 256 302" width="256" xmlns="http://www.w3.org/2000/svg"><path d="m248.495374 128.680652v-9.68371c0-10.596233-8.668965-19.2676913-19.267691-19.2676913h-202.4553657c-10.5962328 0-19.26769119 8.6714583-19.26769119 19.2676913v9.68371c-4.48532305 2.752527-7.50462611 7.686632-7.50462611 13.306375v25.904673c0 5.619744 3.01930306 10.556341 7.50462611 13.308869v10.050215c0 10.596233 8.67145839 19.267691 19.26769119 19.267691h202.4553657c10.598726 0 19.267691-8.671458 19.267691-19.267691v-10.050215c4.487816-2.752528 7.504626-7.689125 7.504626-13.308869v-25.904673c0-5.619743-3.01681-10.556341-7.504626-13.306375zm-119.737432-128.680652c-54.564366 0-99.5771633 40.7693177-106.3188606 93.501159h212.6377216c-6.741697-52.7318413-51.754494-93.501159-106.318861-93.501159zm-32.7884841 237.235941h63.2956621l6.462456 7.482188 9.721108-8.39471-10.304525-11.932605h-75.0562336l-10.3045249 11.932605 9.7211087 8.39471zm109.5999531-22.818052v40.983735c0 11.264419-9.217476 20.481895-20.481895 20.481895h-11.147237v-.039891c-2.440873 0-4.595025-1.1419-6.031126-2.894642h-.027426l-13.328814-17.026276-.014959.012466c-1.423635-1.844991-3.627652-3.056702-6.133349-3.074154-.017453 0-.032412-.004987-.049865-.004987-.014959 0-.029919.004987-.047371.004987h-38.590234c-.017452 0-.032412-.004987-.047371-.004987-.017453 0-.032412.004987-.049865.004987-2.321198.014959-4.378114 1.059623-5.804242 2.675237l-.027426-.012466-13.6404681 17.425193h-.0199458c-1.4361013 1.752742-3.5902531 2.894642-6.0311265 2.894642v.039891h-11.1572099c-11.2644189 0-20.4818948-9.217476-20.4818948-20.481895v-40.983735h-25.032042v41.100917c0 25.032042 20.4818949 45.513937 45.5139368 45.513937h112.1555153c25.034535 0 45.513937-20.481895 45.513937-45.513937v-41.100917z" fill="#0a0b09"/><path d="m210.785129 167.619206h-165.567759c-7.8196784 0-14.21737-6.397691-14.21737-14.21737 0-7.819678 6.3976916-14.21737 14.21737-14.21737h165.567759c7.817179 0 14.214871 6.397692 14.214871 14.21737 0 7.819679-6.397692 14.21737-14.214871 14.21737" fill="#d7252c"/></svg>

<?xml version="1.0" encoding="UTF-8" standalone="no"?>
<svg width="256px" height="302px" viewBox="0 0 256 302" version="1.1" xmlns="http://www.w3.org/2000/svg" xmlns:xlink="http://www.w3.org/1999/xlink" preserveAspectRatio="xMidYMid">
	<g>
		<path d="M248.495374,128.680652 L248.495374,118.996942 C248.495374,108.400709 239.826409,99.7292507 229.227683,99.7292507 L26.7723173,99.7292507 C16.1760845,99.7292507 7.50462611,108.400709 7.50462611,118.996942 L7.50462611,128.680652 C3.01930306,131.433179 0,136.367284 0,141.987027 L0,167.8917 C0,173.511444 3.01930306,178.448041 7.50462611,181.200569 L7.50462611,191.250784 C7.50462611,201.847017 16.1760845,210.518475 26.7723173,210.518475 L229.227683,210.518475 C239.826409,210.518475 248.495374,201.847017 248.495374,191.250784 L248.495374,181.200569 C252.98319,178.448041 256,173.511444 256,167.8917 L256,141.987027 C256,136.367284 252.98319,131.430686 248.495374,128.680652 Z M128.757942,0 C74.193576,0 29.1807787,40.7693177 22.4390814,93.501159 L235.076803,93.501159 C228.335106,40.7693177 183.322309,0 128.757942,0 Z M95.9694579,237.235941 L159.26512,237.235941 L165.727576,244.718129 L175.448684,236.323419 L165.144159,224.390814 L90.0879254,224.390814 L79.7834005,236.323419 L89.5045092,244.718129 L95.9694579,237.235941 Z M205.569411,214.417889 L205.569411,255.401624 C205.569411,266.666043 196.351935,275.883519 185.087516,275.883519 L173.940279,275.883519 L173.940279,275.843628 C171.499406,275.843628 169.345254,274.701728 167.909153,272.948986 L167.881727,272.948986 L154.552913,255.92271 L154.537954,255.935176 C153.114319,254.090185 150.910302,252.878474 148.404605,252.861022 C148.387152,252.861022 148.372193,252.856035 148.35474,252.856035 C148.339781,252.856035 148.324821,252.861022 148.307369,252.861022 L109.717135,252.861022 C109.699683,252.861022 109.684723,252.856035 109.669764,252.856035 C109.652311,252.856035 109.637352,252.861022 109.619899,252.861022 C107.298701,252.875981 105.241785,253.920645 103.815657,255.536259 L103.788231,255.523793 L90.1477629,272.948986 L90.1278171,272.948986 C88.6917158,274.701728 86.537564,275.843628 84.0966906,275.843628 L84.0966906,275.883519 L72.9394807,275.883519 C61.6750618,275.883519 52.4575859,266.666043 52.4575859,255.401624 L52.4575859,214.417889 L27.4255439,214.417889 L27.4255439,255.518806 C27.4255439,280.550848 47.9074388,301.032743 72.9394807,301.032743 L185.094996,301.032743 C210.129531,301.032743 230.608933,280.550848 230.608933,255.518806 L230.608933,214.417889 L205.569411,214.417889 Z" fill="#0A0B09"></path>
		<path d="M210.785129,167.619206 L45.21737,167.619206 C37.3976916,167.619206 31,161.221515 31,153.401836 C31,145.582158 37.3976916,139.184466 45.21737,139.184466 L210.785129,139.184466 C218.602308,139.184466 225,145.582158 225,153.401836 C225,161.221515 218.602308,167.619206 210.785129,167.619206" fill="#D7252C"></path>
	</g>
</svg>
